X: 1
T: Will You Come Down To Limerick
R: slip jig
M: 9/8
L: 1/8
K: Gmaj
d|:cAG GAG GBd|cAG GAB cAd|cAG GAG GAG|1cAA fed cAd:|2cAA fed cAG||
ddg gbf g2f|ddg gfg abc'|bag afa gfd|1cAA fed cAG:|2cAA fed cAd||


Tune 2337	Setting 15708

